X: 1140
T: Terry Hiegh Ho the Grinder. 2nd Setting.
C:Touhy.
B:O'Neill's Music of Ireland
N:O'Neill's - 1140
Z:Transcribed by Stephen Foy (shf@access.digex.net)
Z:abc 1.6
M:9/8
R:slipjig
K:G
B | AGE A2 B G2 B | A2 G ABd e2 d | gdB AGE G2 A | GEE GAB d2 B :|
|: dgg edB TBAB | dgg edB Td2 B | dgg edB TBAB | GEE GAB Td2 B :|


